picto/tracks-91-it-small-framed.svg

<svg class="color-immutable" width="30" height="30" viewBox="0 0 30 30" fill="none" xmlns="http://www.w3.org/2000/svg"><path d="M30 0H0V30H30V0Z" fill="#2D327D"/><path d="M25.5 3C26.325 3 27 3.675 27 4.5V25.5C27 26.325 26.325 27 25.5 27H4.5C3.675 27 3 26.325 3 25.5V4.5C3 3.675 3.675 3 4.5 3H25.5ZM25.5 2.625H4.5C3.46613 2.625 2.625 3.46613 2.625 4.5V25.5C2.625 26.5339 3.46613 27.375 4.5 27.375H25.5C26.5339 27.375 27.375 26.5339 27.375 25.5V4.5C27.375 3.46613 26.5339 2.625 25.5 2.625Z" fill="white"/><path d="M6.36744 21.1795H8.49002C8.66424 22.0511 9.16929 22.4869 10.005 22.4869C10.4767 22.4869 10.8599 22.3267 11.1548 22.0062C11.4495 21.6859 11.6764 21.1872 11.8354 20.5105C11.9379 20.0798 12.0122 19.5902 12.0584 19.0416C11.7149 19.5236 11.3624 19.8658 11.001 20.0682C10.6396 20.2709 10.1999 20.372 9.68214 20.372C8.85662 20.372 8.13887 20.1311 7.52882 19.6491C7.10319 19.3107 6.77132 18.8724 6.53289 18.3341C6.29447 17.7957 6.17529 17.2112 6.17529 16.5806C6.17529 15.3143 6.60849 14.2889 7.47497 13.5044C8.21829 12.8277 9.11042 12.4893 10.1513 12.4893C10.7921 12.4893 11.3843 12.6329 11.9278 12.92C12.4712 13.2071 12.9275 13.6148 13.2967 14.1428C13.9478 15.081 14.2733 16.3987 14.2733 18.0956C14.2733 19.6645 13.9862 21.0026 13.412 22.11C12.6635 23.5508 11.5304 24.271 10.0129 24.271C9.00279 24.271 8.16842 23.9916 7.50969 23.4327C6.85059 22.874 6.46997 22.1229 6.36744 21.1795ZM10.105 14.3888C9.62304 14.3888 9.21542 14.5862 8.88219 14.981C8.54889 15.3809 8.38232 15.8885 8.38232 16.5038C8.38232 17.0012 8.50269 17.442 8.74374 17.8265C9.07179 18.3547 9.53319 18.6187 10.128 18.6187C10.6664 18.6187 11.097 18.4034 11.42 17.9727C11.7225 17.5678 11.8738 17.0858 11.8738 16.5269C11.8738 15.9374 11.7173 15.4376 11.4047 15.0273C11.0765 14.6016 10.6433 14.3888 10.105 14.3888Z" fill="white"/><path d="M21.5053 12.7585V24.0019H19.2597V16.6421H18.4599H17.6601H16.8834H16.6143V15.0118C17.1627 14.9964 17.6101 14.94 17.9563 14.8426C18.3023 14.7452 18.6189 14.5863 18.906 14.3658C19.3213 14.048 19.6007 13.5122 19.7443 12.7585H21.5053Z" fill="white"/><path d="M6.00073 6H7.01278C7.23013 6 7.39221 6.02715 7.49878 6.08152C7.59928 6.13282 7.67518 6.20715 7.72641 6.30457C7.76946 6.38662 7.79098 6.47377 7.79098 6.56602C7.79098 6.66855 7.76481 6.75982 7.71253 6.83977C7.66026 6.91972 7.58436 6.9828 7.48491 7.02893C7.57101 7.05765 7.63566 7.08788 7.67871 7.11968C7.82428 7.22633 7.89711 7.38165 7.89711 7.58572C7.89711 7.7067 7.87018 7.81537 7.81633 7.91182C7.76248 8.00827 7.68531 8.0856 7.58488 8.1441C7.46593 8.21385 7.30543 8.24873 7.10346 8.24873H6.00073V6ZM6.49138 6.38603V6.9105H6.94048C7.04511 6.9105 7.12198 6.8982 7.17118 6.8736C7.26246 6.8295 7.30806 6.7536 7.30806 6.64597C7.30806 6.5547 7.27933 6.48855 7.22196 6.44753C7.16458 6.4065 7.07068 6.38603 6.94048 6.38603H6.49138ZM6.49138 7.24583V7.86263H6.98818C7.13068 7.86263 7.23066 7.8426 7.28811 7.80263C7.36401 7.74825 7.40196 7.66575 7.40196 7.55498C7.40196 7.42268 7.35066 7.33245 7.24813 7.2843C7.19173 7.25865 7.09686 7.24583 6.96358 7.24583H6.49138Z" fill="white"/><path d="M8.63707 6V6.40147H8.19104V6H8.63707ZM8.63707 6.57217V8.24873H8.19104V6.57217H8.63707Z" fill="white"/><path d="M9.41681 6.57368V6.80903C9.46908 6.73725 9.51783 6.68445 9.56291 6.65063C9.67368 6.56453 9.80696 6.5214 9.96281 6.5214C10.1002 6.5214 10.2166 6.55628 10.3119 6.62603C10.3878 6.68138 10.4409 6.75135 10.4712 6.83595C10.5015 6.92055 10.5165 7.03973 10.5165 7.19355V8.24865H10.072V7.28738C10.072 7.17968 10.0628 7.10078 10.0443 7.05053C10.0269 7.00643 9.99716 6.97155 9.95516 6.9459C9.90693 6.91823 9.85211 6.90435 9.79061 6.90435C9.72296 6.90435 9.66138 6.92077 9.60603 6.95355C9.55068 6.98632 9.50966 7.03095 9.48296 7.08735C9.45326 7.15095 9.43833 7.24988 9.43833 7.3842V8.24858H8.99231V6.57368H9.41681Z" fill="white"/><path d="M12.3792 8.24865H11.924C11.9045 8.18303 11.8947 8.12715 11.8947 8.08103C11.7553 8.22353 11.5753 8.29485 11.3549 8.29485C11.1826 8.29485 11.0483 8.25488 10.9519 8.17485C10.8411 8.0826 10.7858 7.9539 10.7858 7.78883C10.7858 7.5786 10.8806 7.43303 11.0703 7.35203C11.1472 7.31918 11.2887 7.28895 11.4948 7.26128C11.6722 7.23773 11.7827 7.21485 11.8262 7.1928C11.8698 7.17075 11.8916 7.12643 11.8916 7.05975C11.8916 6.91313 11.7942 6.83978 11.5994 6.83978C11.4959 6.83978 11.4203 6.85823 11.3726 6.89513C11.3249 6.93203 11.2934 6.99615 11.278 7.08735H10.8566C10.8699 6.90075 10.9401 6.75998 11.0673 6.66518C11.1944 6.5703 11.3754 6.5229 11.6102 6.5229C11.8697 6.5229 12.0614 6.5757 12.1855 6.6813C12.2429 6.7305 12.2811 6.7833 12.3001 6.8397C12.3191 6.8961 12.3285 6.98528 12.3285 7.1073C12.3285 7.13295 12.3269 7.24575 12.3239 7.4457C12.3218 7.64768 12.3208 7.76355 12.3208 7.79333C12.3208 7.91535 12.3244 8.00483 12.3316 8.06175C12.3388 8.11868 12.3546 8.181 12.3792 8.24865ZM11.8886 7.43813C11.8311 7.47405 11.7266 7.50218 11.5748 7.52273C11.4681 7.53915 11.3912 7.56015 11.3441 7.5858C11.2774 7.62173 11.2441 7.6827 11.2441 7.7688C11.2441 7.83855 11.2661 7.89285 11.3102 7.93185C11.3543 7.97085 11.4158 7.99028 11.4948 7.99028C11.6261 7.99028 11.7322 7.94415 11.8132 7.85183C11.8419 7.82003 11.8616 7.78695 11.8724 7.7526C11.8832 7.71825 11.8886 7.67288 11.8886 7.61648V7.43813Z" fill="white"/><path d="M13.7158 6.54142V6.97365C13.6441 6.9603 13.5862 6.95362 13.5421 6.95362C13.3759 6.95362 13.2539 7.02337 13.176 7.1628C13.1319 7.24072 13.1098 7.37092 13.1098 7.55347V8.24872H12.6638V6.5691H13.0883V6.87517C13.2093 6.64755 13.3852 6.5337 13.6159 6.5337C13.6445 6.5337 13.6779 6.53625 13.7158 6.54142Z" fill="white"/><path d="M14.3725 6V6.40147H13.9265V6H14.3725ZM14.3725 6.57217V8.24873H13.9265V6.57217H14.3725Z" fill="white"/><path d="M15.5338 6.5229C15.7778 6.5229 15.9773 6.6039 16.1321 6.7659C16.2849 6.92588 16.3613 7.13918 16.3613 7.40573C16.3613 7.68158 16.2798 7.90148 16.1168 8.06558C15.964 8.21835 15.7651 8.29478 15.52 8.29478C15.2585 8.29478 15.0503 8.20965 14.8955 8.03948C14.7479 7.87748 14.6741 7.66725 14.6741 7.40888C14.6741 7.15455 14.7458 6.94793 14.8894 6.789C15.0482 6.61163 15.263 6.5229 15.5338 6.5229ZM15.5107 6.87053C15.3928 6.87053 15.299 6.91823 15.2292 7.01355C15.1585 7.10993 15.1231 7.2417 15.1231 7.40888C15.1231 7.5822 15.158 7.71495 15.2277 7.80728C15.2995 7.90058 15.3974 7.94723 15.5215 7.94723C15.6374 7.94723 15.7292 7.9047 15.7968 7.81958C15.8737 7.72523 15.9122 7.58835 15.9122 7.40888C15.9122 7.24073 15.8783 7.11 15.8106 7.0167C15.7399 6.91928 15.6399 6.87053 15.5107 6.87053Z" fill="white"/></svg>

<svg class="color-immutable" width="30" height="30" viewBox="0 0 30 30" fill="none" xmlns="http://www.w3.org/2000/svg"><g clip-path="url(#a)"><path d="M30 0H0v30h30V0Z" fill="#2D327D"/><path d="M25.5 3c.825 0 1.5.675 1.5 1.5v21c0 .825-.675 1.5-1.5 1.5h-21c-.825 0-1.5-.675-1.5-1.5v-21C3 3.675 3.675 3 4.5 3h21Zm0-.375h-21A1.877 1.877 0 0 0 2.625 4.5v21c0 1.034.841 1.875 1.875 1.875h21a1.877 1.877 0 0 0 1.875-1.875v-21A1.877 1.877 0 0 0 25.5 2.625Z" fill="#fff"/><path d="M6.367 21.18H8.49c.174.871.68 1.307 1.515 1.307.472 0 .855-.16 1.15-.48.295-.321.521-.82.68-1.497.103-.43.177-.92.223-1.468-.343.482-.696.824-1.057 1.026-.361.203-.801.304-1.319.304-.825 0-1.543-.24-2.153-.723a3.41 3.41 0 0 1-.996-1.315 4.282 4.282 0 0 1-.358-1.753c0-1.267.433-2.292 1.3-3.077.743-.676 1.635-1.015 2.676-1.015.641 0 1.233.144 1.777.431.543.287 1 .695 1.369 1.223.65.938.976 2.256.976 3.953 0 1.569-.287 2.907-.861 4.014-.748 1.44-1.882 2.161-3.4 2.161-1.01 0-1.844-.28-2.502-.838-.66-.559-1.04-1.31-1.143-2.253Zm3.738-6.791c-.482 0-.89.197-1.223.592-.333.4-.5.908-.5 1.523 0 .497.12.938.362 1.322.328.529.79.793 1.384.793.538 0 .969-.216 1.292-.646.303-.405.454-.887.454-1.446 0-.59-.157-1.09-.47-1.5a1.561 1.561 0 0 0-1.299-.638ZM21.505 12.758v11.244H19.26v-7.36H16.614v-1.63c.549-.016.996-.072 1.342-.17.346-.097.663-.256.95-.476.415-.318.695-.854.838-1.607h1.761ZM6 6h1.013c.217 0 .38.027.486.082.1.05.176.125.227.223.043.082.065.169.065.261a.489.489 0 0 1-.306.463c.086.029.15.059.194.09.145.107.218.263.218.467a.61.61 0 0 1-.312.558c-.12.07-.28.105-.482.105H6.001V6Zm.491.386v.524h.45a.542.542 0 0 0 .23-.036c.091-.044.137-.12.137-.228 0-.091-.029-.157-.086-.198-.057-.042-.151-.062-.282-.062h-.449Zm0 .86v.617h.497c.143 0 .243-.02.3-.06.076-.055.114-.137.114-.248 0-.132-.051-.223-.154-.27a.749.749 0 0 0-.284-.04H6.49ZM8.637 6v.401h-.446V6h.446Zm0 .572V8.25h-.446V6.572h.446ZM9.417 6.574v.235a.632.632 0 0 1 .546-.288c.137 0 .254.035.349.105a.439.439 0 0 1 .16.21c.03.085.045.204.045.358v1.055h-.445v-.962a.74.74 0 0 0-.028-.236.21.21 0 0 0-.089-.105.356.356 0 0 0-.35.008.304.304 0 0 0-.122.133.74.74 0 0 0-.045.297v.865h-.446V6.574h.425ZM12.38 8.249h-.456a.606.606 0 0 1-.03-.168.722.722 0 0 1-.54.214c-.171 0-.306-.04-.402-.12a.475.475 0 0 1-.166-.386c0-.21.095-.356.284-.437.077-.033.219-.063.425-.09.177-.024.288-.047.331-.07.044-.021.066-.066.066-.132 0-.147-.098-.22-.293-.22-.103 0-.179.018-.226.055-.048.037-.08.101-.095.192h-.421a.545.545 0 0 1 .21-.422c.127-.095.308-.142.543-.142.26 0 .451.053.575.158.058.05.096.102.115.159a.911.911 0 0 1 .028.267l-.004.339-.003.347c0 .122.003.212.01.269.008.057.024.119.048.187Zm-.491-.81a.866.866 0 0 1-.314.084.756.756 0 0 0-.23.063c-.068.036-.1.097-.1.183 0 .07.021.124.065.163a.27.27 0 0 0 .185.058.403.403 0 0 0 .318-.138.27.27 0 0 0 .06-.1.466.466 0 0 0 .016-.136v-.178ZM13.716 6.541v.433a.995.995 0 0 0-.174-.02.39.39 0 0 0-.366.209c-.044.078-.066.208-.066.39v.696h-.446v-1.68h.424v.306c.121-.227.297-.341.528-.341a.75.75 0 0 1 .1.007ZM14.373 6v.401h-.446V6h.446Zm0 .572V8.25h-.446V6.572h.446ZM15.534 6.523a.79.79 0 0 1 .598.243c.153.16.23.373.23.64 0 .276-.082.495-.245.66a.807.807 0 0 1-.597.229c-.261 0-.47-.085-.624-.256-.148-.162-.222-.372-.222-.63 0-.254.072-.461.215-.62.16-.177.374-.266.645-.266Zm-.023.348a.331.331 0 0 0-.282.143.656.656 0 0 0-.106.395c0 .173.035.306.105.398a.35.35 0 0 0 .293.14.333.333 0 0 0 .276-.127c.077-.095.115-.232.115-.411 0-.168-.034-.299-.101-.392a.349.349 0 0 0-.3-.146Z" fill="#fff"/></g><defs><clipPath id="a"><path fill="#fff" d="M0 0h30v30H0z"/></clipPath></defs></svg>
